X: 33337
T: Queen Of Connemara
R: waltz
M: 3/4
K: Dmajor
A,2 B,2 C2||D4C2|D4F2|A6|A2B2c2|
d4c2|B4A2|FAA4|A2z2FE|
D4C2|D4E2|FEE4|F2G2A2|
B4E2|E4F2|E6|E2z2AG|
F4G2|A4F2|BAA4|A2E2D2|
G4A2|B4c2|dDD4|z2d2c2|
BA4B|A4F2|EDD4|B,4A,2|
B,DD4|D4C2|D6|z2F2G2|
A4z2|A4F2|A4z2|z4FG|
A4A2|B4c2|d6|z4d2|
dee4|B4c2|dFF4|z2G2A2|
BF3D2|E4C2|D6|

